packages/icons/src/double-check.svg

<svg width="24" height="24" viewBox="0 0 24 24" fill="none" xmlns="http://www.w3.org/2000/svg">
<path fill-rule="evenodd" clip-rule="evenodd" d="M14.4834 6.48413L15.5841 7.5849L6.82708 16.4496L2.86816 12.6216L3.96895 11.5208L6.82671 14.2479L14.4834 6.48413ZM18.9746 6.48413L20.0753 7.5849L11.3183 16.4496L10.2549 15.3717L11.3179 14.2479L18.9746 6.48413Z" fill="black"/>
</svg>

<svg xmlns="http://www.w3.org/2000/svg" width="24" height="24" fill="none" viewBox="0 0 24 24">
  <path fill="#000" fill-rule="evenodd" d="m14.483 6.484 1.101 1.1-8.757 8.866-3.959-3.828L3.97 11.52l2.858 2.727 7.656-7.764Zm4.492 0 1.1 1.1-8.757 8.866-1.063-1.078 1.063-1.124 7.657-7.764Z" clip-rule="evenodd"/>
</svg>
